X: 34753
T: Road To Lizelec'h, The
R: reel
M: 4/4
K: Gmajor
|:D~G3 AGdB|~A3B AGED|B2Bd edge|dGBG AGEG|
D~G3 AG B/c/d|~A3B AGED|~B3A AGED|EGFD G2z2:|
|:degd e2dB|cBAG A~E3|AEBA G2DE|GDEG AGAB|
d2ga e2dB|cBAG A~E3|B/c/d eB cBGG|DEGA G~G3:|

